svgs/duotone/tv-music.svg

<svg xmlns="http://www.w3.org/2000/svg" viewBox="0 0 640 512"><!-- Font Awesome Pro 6.0.0-alpha2 by @fontawesome - https://fontawesome.com License - https://fontawesome.com/license (Commercial License) --><defs><style>.fa-secondary{opacity:.4}</style></defs><path d="M512 448H128C110.327 448 96 462.327 96 480V480C96 497.673 110.327 512 128 512H512C529.673 512 544 497.673 544 480V480C544 462.327 529.673 448 512 448ZM592 0H48C21.5 0 0 21.5 0 48V368C0 394.5 21.5 416 48 416H592C618.5 416 640 394.5 640 368V48C640 21.5 618.5 0 592 0ZM576 352H64V64H576V352Z" class="fa-secondary"/><path d="M64 64V352H576V64H64ZM416 256C416 273.625 394.5 288 368 288S320 273.625 320 256S341.5 224 368 224C373.375 224 378.75 224.75 384 226V165.625L288 203.125V288C288 305.625 266.5 320 240 320S192 305.625 192 288S213.5 256 240 256C245.375 256 250.75 256.75 256 258V159.25C256 152.25 260.5 146.125 267.25 144L395.25 96.75C400 95.25 405.375 96.125 409.5 99.125S416 106.875 416 112V256Z" class="fa-primary"/></svg>

<svg xmlns="http://www.w3.org/2000/svg" viewBox="0 0 640 512"><!-- Font Awesome Pro 5.15.1 by @fontawesome - https://fontawesome.com License - https://fontawesome.com/license (Commercial License) --><defs><style>.fa-secondary{opacity:.4}</style></defs><path d="M64 64v288h512V64zm352 192c0 17.67-21.5 32-48 32s-48-14.33-48-32 21.5-32 48-32a69.82 69.82 0 0 1 16 2v-60.36l-96 37.52V288c0 17.67-21.5 32-48 32s-48-14.33-48-32 21.5-32 48-32a69.82 69.82 0 0 1 16 2v-98.7a16 16 0 0 1 11.19-15.3l128-47.25A16 16 0 0 1 416 112z" class="fa-secondary"/><path d="M512 448H128a32 32 0 0 0 0 64h384a32 32 0 0 0 0-64zM592 0H48A48 48 0 0 0 0 48v320a48 48 0 0 0 48 48h544a48 48 0 0 0 48-48V48a48 48 0 0 0-48-48zm-16 352H64V64h512zm-336-32c26.5 0 48-14.33 48-32v-84.84l96-37.52V226a69.82 69.82 0 0 0-16-2c-26.5 0-48 14.33-48 32s21.5 32 48 32 48-14.33 48-32V112a16 16 0 0 0-20.81-15.25l-128 47.25A16 16 0 0 0 256 159.25V258a69.82 69.82 0 0 0-16-2c-26.5 0-48 14.33-48 32s21.5 32 48 32z" class="fa-primary"/></svg>
